X: 1
T: The Rose In The Heather
M: 6/8
L: 1/8
K: Dmaj
F2F EDB,|DFA BAF|ABd ede|fdB AFE|
F2F EFE|DFA Bcd|edB AFE|FDD D3:|
|:fdB ABd|faa afd|g2g fed|Bee ede|fdB ABd|
faa afa|baf gfe|1 fdd d2e:|2 fdB AFE|]
